T: O'Sullivan's March
M: 6/8
L: 1/8
K: Gmaj
D |: GBA ABd | edB A2 D | GBA B2 G |AGG GED |
GBA ABd | edB A2 D | GBA B2 G :|1 AGG G2 D |2 AGG G2g ||
| e3 e2d | ege edB | ded dB/c/d | dgB BAG |
cBc dB/c/d | egB A2 D | GBA B2 G |1 AGG G2g:|2AGG G2D||
